!!!OTL: Abendreihen
!!!ARE: Europa, Mitteleuropa, Deutschland
!!!SCT: A0283B
!!!YEM: Copyright 1995, estate of Helmut Schaffrath.
**kern
*ICvox
*Ivox
*M4/2
*k[b-]
*F:
{2f
=1
1a
1b-
=2
1.cc
2b-
=3
1a
1g
=4
1f
2r}
{2f
=5
1a
1b-
=6
1.cc
2b-
=7
1a
1g
=8
1f
2r}
{2b-
=9
1a
1g
=10
1d
1c
=11
1g
1a
=12
1f
2r}
{2b-
=13
1a
1g
=14
1d
1c
=15
1g
1a
=16
1f
2r}
==
!!!AGN: Romanze, Ballade, Lied
!! Geistliche Ringeltentze 1550 No. 11.
!!!ONB: ESAC (Essen Associative Code) Database: ALTDEU
!!!AMT: simple quadruple
!!!AIN: vox
!!!EED: Helmut Schaffrath
!!!EEV: 1.0
*-
